icons/unfold-24.svg

<svg xmlns="http://www.w3.org/2000/svg" width="24" height="24" viewBox="0 0 24 24">
  <defs/>
  <path d="M12,23 C11.801,23 11.611,22.921 11.47,22.78 L8.22,19.53 C8.019,19.343 7.937,19.061 8.005,18.796 C8.072,18.53 8.28,18.322 8.546,18.255 C8.811,18.187 9.093,18.269 9.28,18.47 L12,21.19 L14.72,18.47 C14.907,18.269 15.189,18.187 15.454,18.255 C15.72,18.322 15.928,18.53 15.995,18.796 C16.063,19.061 15.981,19.343 15.78,19.53 L12.53,22.78 C12.389,22.921 12.199,23 12,23 Z"/>
  <path d="M11.47,1.22 C11.763,0.928 12.237,0.928 12.53,1.22 L15.78,4.47 C16.055,4.766 16.047,5.226 15.762,5.512 C15.476,5.797 15.016,5.805 14.72,5.53 L12,2.81 L9.28,5.53 C8.984,5.805 8.524,5.797 8.238,5.512 C7.953,5.226 7.945,4.766 8.22,4.47 Z M12,22.25 C11.586,22.25 11.25,21.914 11.25,21.5 L11.25,15.75 C11.25,15.336 11.586,15 12,15 C12.414,15 12.75,15.336 12.75,15.75 L12.75,21.5 C12.75,21.914 12.414,22.25 12,22.25 Z M2.75,12 C2.75,11.586 3.086,11.25 3.5,11.25 L4.5,11.25 C4.914,11.25 5.25,11.586 5.25,12 C5.25,12.414 4.914,12.75 4.5,12.75 L3.5,12.75 C3.086,12.75 2.75,12.414 2.75,12 Z M6.75,12 C6.75,11.586 7.086,11.25 7.5,11.25 L8.5,11.25 C8.914,11.25 9.25,11.586 9.25,12 C9.25,12.414 8.914,12.75 8.5,12.75 L7.5,12.75 C7.086,12.75 6.75,12.414 6.75,12 Z M10.75,12 C10.75,11.586 11.086,11.25 11.5,11.25 L12.5,11.25 C12.914,11.25 13.25,11.586 13.25,12 C13.25,12.414 12.914,12.75 12.5,12.75 L11.5,12.75 C11.086,12.75 10.75,12.414 10.75,12 Z M14.75,12 C14.75,11.586 15.086,11.25 15.5,11.25 L16.5,11.25 C16.914,11.25 17.25,11.586 17.25,12 C17.25,12.414 16.914,12.75 16.5,12.75 L15.5,12.75 C15.086,12.75 14.75,12.414 14.75,12 Z M18.75,12 C18.75,11.586 19.086,11.25 19.5,11.25 L20.5,11.25 C20.914,11.25 21.25,11.586 21.25,12 C21.25,12.414 20.914,12.75 20.5,12.75 L19.5,12.75 C19.086,12.75 18.75,12.414 18.75,12 Z"/>
  <path d="M12,1.5 C12.414,1.5 12.75,1.836 12.75,2.25 L12.75,8.25 C12.75,8.664 12.414,9 12,9 C11.586,9 11.25,8.664 11.25,8.25 L11.25,2.25 C11.25,1.836 11.586,1.5 12,1.5 Z"/>
</svg>

<svg xmlns="http://www.w3.org/2000/svg" width="24" height="24" viewBox="0 0 24 24"><path fill-rule="evenodd" d="M12 23a.75.75 0 01-.53-.22l-3.25-3.25a.75.75 0 111.06-1.06L12 21.19l2.72-2.72a.75.75 0 111.06 1.06l-3.25 3.25A.75.75 0 0112 23z"/><path fill-rule="evenodd" d="M12 22.25a.75.75 0 01-.75-.75v-5.75a.75.75 0 011.5 0v5.75a.75.75 0 01-.75.75zM10.75 12a.75.75 0 01.75-.75h1a.75.75 0 110 1.5h-1a.75.75 0 01-.75-.75zm-8 0a.75.75 0 01.75-.75h1a.75.75 0 010 1.5h-1a.75.75 0 01-.75-.75zm12 0a.75.75 0 01.75-.75h1a.75.75 0 010 1.5h-1a.75.75 0 01-.75-.75zm-8 0a.75.75 0 01.75-.75h1a.75.75 0 010 1.5h-1a.75.75 0 01-.75-.75zm12 0a.75.75 0 01.75-.75h1a.75.75 0 010 1.5h-1a.75.75 0 01-.75-.75zM11.47 1.22a.75.75 0 011.06 0l3.25 3.25a.75.75 0 01-1.06 1.06L12 2.81 9.28 5.53a.75.75 0 01-1.06-1.06l3.25-3.25z"/><path fill-rule="evenodd" d="M12 1.5a.75.75 0 01.75.75v6a.75.75 0 01-1.5 0v-6A.75.75 0 0112 1.5z"/></svg>
